shared/images/iconfont/kb-iconfont-remove-16.svg

<?xml version="1.0" encoding="UTF-8"?>
<svg width="16px" height="16px" viewBox="0 0 16 16" version="1.1" xmlns="http://www.w3.org/2000/svg" xmlns:xlink="http://www.w3.org/1999/xlink">
    <!-- Generator: sketchtool 49.3 (51167) - http://www.bohemiancoding.com/sketch -->
    <title>926472AF-F749-4053-B0BB-ECAA15555FD0</title>
    <desc>Created with sketchtool.</desc>
    <defs></defs>
    <g id="Colors,-icons" stroke="none" stroke-width="1" fill="none" fill-rule="evenodd">
        <g id="Icons-2" transform="translate(-431.000000, -366.000000)">
            <g id="kb-iconfont-remove-16" transform="translate(431.000000, 366.000000)">
                <rect id="icon-area" fill="#D8D8D8" opacity="0" x="0" y="0" width="16" height="16"></rect>
                <path d="M0,8 C0,3.581722 3.59071231,0 8,0 C12.418278,0 16,3.59071231 16,8 C16,12.418278 12.4092877,16 8,16 C3.581722,16 0,12.4092877 0,8 Z M9.2373522,7.99998004 L11.2437396,5.99358827 C11.5854185,5.65190928 11.5854185,5.09793826 11.2437395,4.75625931 C10.9020606,4.41458036 10.3480896,4.41458032 10.0064106,4.75625923 L8.00001879,6.76265101 L5.99362701,4.75625923 C5.65194803,4.41458026 5.09797696,4.41458026 4.75629798,4.75625923 C4.414619,5.09793821 4.414619,5.65190929 4.75629798,5.99358827 L6.76267225,7.99998004 L4.75628048,10.0063718 C4.53525289,10.2273994 4.44893178,10.549554 4.52983347,10.8514833 C4.61073516,11.1534126 4.84656876,11.3892462 5.14849803,11.4701479 C5.45042729,11.5510496 5.77258198,11.4647284 5.99360951,11.2437008 L8.00000129,9.23730907 L10.0063931,11.2437008 C10.3480721,11.5853798 10.9020431,11.5853797 11.243722,11.2437008 C11.585401,10.9020218 11.585401,10.3480508 11.2437221,10.0063718 L9.2373522,7.99998004 Z" id="Combined-Shape" fill="#000000"></path>
            </g>
        </g>
    </g>
</svg>

<svg xmlns="http://www.w3.org/2000/svg" width="16" height="16" viewBox="0 0 16 16">
    <path fill="#000" fill-rule="evenodd" d="M0 8c0-4.418 3.59-8 8-8 4.418 0 8 3.59 8 8 0 4.418-3.59 8-8 8-4.418 0-8-3.59-8-8zm9.237 0l2.007-2.006a.875.875 0 0 0-1.238-1.238L8 6.763 5.994 4.756a.875.875 0 0 0-1.238 1.238L6.763 8l-2.007 2.006a.875.875 0 1 0 1.238 1.238L8 9.237l2.006 2.007a.875.875 0 1 0 1.238-1.238L9.237 8z"/>
</svg>
